svgs/sharp-regular/repeat.svg

<svg xmlns="http://www.w3.org/2000/svg" viewBox="0 0 512 512"><!--! Font Awesome Pro 6.6.0 by @fontawesome - https://fontawesome.com License - https://fontawesome.com/license (Commercial License) Copyright 2024 Fonticons, Inc. --><path d="M0 280l0-24L0 96 0 72l24 0 280 0 0-24 0-48 48 0 62.1 62.1L448 96l-33.9 33.9L352 192l-48 0 0-48 0-24L48 120l0 136 0 24L0 280zM352 124.1L380.1 96 352 67.9l0 56.2zM512 232l0 24 0 160 0 24-24 0-280 0 0 24 0 48-48 0L97.9 449.9 64 416l33.9-33.9L160 320l48 0 0 48 0 24 256 0 0-136 0-24 48 0zM160 444.1l0-56.2L131.9 416 160 444.1z"/></svg>

<svg xmlns="http://www.w3.org/2000/svg" viewBox="0 0 512 512"><!--! Font Awesome Pro 6.4.0 by @fontawesome - https://fontawesome.com License - https://fontawesome.com/license (Commercial License) Copyright 2023 Fonticons, Inc. --><path d="M0 280V256 96 72H24 304V48 0h48l62.1 62.1L448 96l-33.9 33.9L352 192H304V144 120H48V256v24H0zM352 124.1L380.1 96 352 67.9v56.2zM512 232v24l0 160v24l-24 0-280 0 0 24v48H160L97.9 449.9 64 416l33.9-33.9L160 320h48v48 24l256 0 0-136V232h48zM160 444.1V387.9L131.9 416 160 444.1z"/></svg>
